img/icons/mist.svg

<?xml version="1.0" encoding="UTF-8" standalone="no"?>
<!-- Generator: Adobe Illustrator 15.1.0, SVG Export Plug-In . SVG Version: 6.00 Build 0)  -->

<svg
   xmlns:dc="http://purl.org/dc/elements/1.1/"
   xmlns:cc="http://creativecommons.org/ns#"
   xmlns:rdf="http://www.w3.org/1999/02/22-rdf-syntax-ns#"
   xmlns:svg="http://www.w3.org/2000/svg"
   xmlns="http://www.w3.org/2000/svg"
   xmlns:sodipodi="http://sodipodi.sourceforge.net/DTD/sodipodi-0.dtd"
   xmlns:inkscape="http://www.inkscape.org/namespaces/inkscape"
   version="1.1"
   id="Layer_1"
   x="0px"
   y="0px"
   width="320"
   height="224"
   viewBox="0 0 320 224"
   enable-background="new 0 0 512 512"
   xml:space="preserve"
   inkscape:version="0.91 r13725"
   sodipodi:docname="mist.svg"><metadata
     id="metadata13"><rdf:RDF><cc:Work
         rdf:about=""><dc:format>image/svg+xml</dc:format><dc:type
           rdf:resource="http://purl.org/dc/dcmitype/StillImage" /><dc:title></dc:title></cc:Work></rdf:RDF></metadata><defs
     id="defs11" /><sodipodi:namedview
     pagecolor="#ffffff"
     bordercolor="#666666"
     borderopacity="1"
     objecttolerance="10"
     gridtolerance="10"
     guidetolerance="10"
     inkscape:pageopacity="0"
     inkscape:pageshadow="2"
     inkscape:window-width="640"
     inkscape:window-height="480"
     id="namedview9"
     showgrid="false"
     fit-margin-top="0"
     fit-margin-left="0"
     fit-margin-right="0"
     fit-margin-bottom="0"
     inkscape:zoom="0.4609375"
     inkscape:cx="160"
     inkscape:cy="96"
     inkscape:window-x="0"
     inkscape:window-y="0"
     inkscape:window-maximized="0"
     inkscape:current-layer="Layer_1" /><g
     id="g3"
     transform="translate(-96,-128)"><g
       id="g5"><path
         d="m 112,160 288,0 c 8.833,0 16,-7.167 16,-16 0,-8.833 -7.167,-16 -16,-16 l -288,0 c -8.833,0 -16,7.167 -16,16 0,8.833 7.167,16 16,16 z m 288,32 -288,0 c -8.833,0 -16,7.167 -16,16 0,8.833 7.167,16 16,16 l 288,0 c 8.833,0 16,-7.167 16,-16 0,-8.833 -7.167,-16 -16,-16 z m 0,64 -288,0 c -8.833,0 -16,7.167 -16,16 0,8.833 7.167,16 16,16 l 288,0 c 8.833,0 16,-7.167 16,-16 0,-8.833 -7.167,-16 -16,-16 z m 0,64 -288,0 c -8.833,0 -16,7.167 -16,16 0,8.833 7.167,16 16,16 l 288,0 c 8.833,0 16,-7.167 16,-16 0,-8.833 -7.167,-16 -16,-16 z"
         id="path7"
         inkscape:connector-curvature="0"
         style="fill:#1d1d1b" /></g></g></svg>

<?xml version="1.0" encoding="utf-8"?>
<!-- Generator: Adobe Illustrator 15.1.0, SVG Export Plug-In . SVG Version: 6.00 Build 0)  -->
<!DOCTYPE svg PUBLIC "-//W3C//DTD SVG 1.1//EN" "http://www.w3.org/Graphics/SVG/1.1/DTD/svg11.dtd">
<svg version="1.1" id="Layer_1" xmlns="http://www.w3.org/2000/svg" xmlns:xlink="http://www.w3.org/1999/xlink" x="0px" y="0px"
	 width="512px" height="512px" viewBox="0 0 512 512" enable-background="new 0 0 512 512" xml:space="preserve">

<g>
	<g>
		<path fill="#1D1D1B" d="M112,160h288c8.833,0,16-7.167,16-16s-7.167-16-16-16H112c-8.833,0-16,7.167-16,16S103.167,160,112,160z
			 M400,192H112c-8.833,0-16,7.167-16,16s7.167,16,16,16h288c8.833,0,16-7.167,16-16S408.833,192,400,192z M400,256H112
			c-8.833,0-16,7.167-16,16s7.167,16,16,16h288c8.833,0,16-7.167,16-16S408.833,256,400,256z M400,320H112c-8.833,0-16,7.167-16,16
			s7.167,16,16,16h288c8.833,0,16-7.167,16-16S408.833,320,400,320z"/>
	</g>
</g>
</svg>
